X:340
T:La boulang\`ere
R:Branle b\'earnais
C:trad
N:original url: www.wolfram.claranet.de
Z:Wolfram Dietz d'apr\`es Marie-Claire Carr\'e-Viala
M:2/4
L:1/8
K:G
"G"DB,/C/DD| "Bm"E/F/E/F/D2| "C"G>A"D"BD| "G"BAG2:|
|:"Am"cBA/G/A/B/|"Am"cBA/G/A/B/| cBAG|1 "D"A/G/F/E/D2:|2 "D"A/G/F/E/D2"D.C."||
"D"A/"Coda"G/F/E/D E/F/|
|"G"G>GGE| "D"F>EDE/F/| "C"G>GGE| "Bm"F>EDE/F/| "G"GBGB/G/| "D"A2dc/B/|"Em"ABcd| e2d^c| "D"d4||
